X: 4105
T: MISS PROUD
R: Reel.
%R: reel
B: James Kerr "Merry Melodies" v.4 p.13 #105
Z: 2016 John Chambers <jc:trillian.mit.edu>
M: C
L: 1/8
K: G
uc |\
B2(dc) BGge | d2(dB) AFcA |\
B2(dc) BGge | dBcA G3 ::\
c |\
BGBd AFAc | BGBd gedc |\
BGBd AFAd | dBcA G3 :|
|:\
c |\
(B/c/d) d2 dgab | (A/B/c) c2 cfga |\
(B/c/d) d2 dfgb | afge d3 ::\
c |\
(B/c/d) (BG) (A/B/c) (AF) | GABc dgec |\
(B/c/d) (BG) (A/B/c) (AF) | GcBA G3 :|

%%sep 1 1 500
%%sep 1 1 500

